src/assets/img/icons/duotone-icons/Design/Polygon.svg

<?xml version="1.0" encoding="UTF-8"?>
<svg width="24px" height="24px" viewBox="0 0 24 24" version="1.1" xmlns="http://www.w3.org/2000/svg" xmlns:xlink="http://www.w3.org/1999/xlink">
    <!-- Generator: Sketch 52.2 (67145) - http://www.bohemiancoding.com/sketch -->
    <title>Stockholm-icons / Design / Polygon</title>
    <desc>Created with Sketch.</desc>
    <g id="Stockholm-icons-/-Design-/-Polygon" stroke="none" stroke-width="1" fill="none" fill-rule="evenodd">
        <rect id="bound" x="0" y="0" width="24" height="24"></rect>
        <path d="M8.08113883,20 L15.9188612,20 C16.5645068,20 17.137715,19.5868549 17.3418861,18.9743416 L19.6721428,11.9835717 C19.8694432,11.3916705 19.6797482,10.7394436 19.1957765,10.3456849 L12.9561839,5.26916104 C12.4053757,4.82102426 11.6158052,4.82050247 11.0644052,5.26791085 L4.80622561,10.345825 C4.32117072,10.7394007 4.13079092,11.3923728 4.32832067,11.984962 L6.65811388,18.9743416 C6.86228495,19.5868549 7.43549322,20 8.08113883,20 Z" id="Path-4" fill="#335EEA"></path>
    </g>
</svg>

<svg width="24" height="24" viewBox="0 0 24 24" xmlns="http://www.w3.org/2000/svg"><g fill="none" fill-rule="evenodd"><path d="M0 0h24v24H0z"/><path d="M8.081 20h7.838a1.5 1.5 0 001.423-1.026l2.33-6.99a1.5 1.5 0 00-.476-1.638l-6.24-5.077a1.5 1.5 0 00-1.892-.001l-6.258 5.078a1.5 1.5 0 00-.478 1.639l2.33 6.99A1.5 1.5 0 008.081 20z" fill="#335EEA"/></g></svg>
